icons/mini/arrow-down-tray.svg

<svg width="20" height="20" viewBox="0 0 20 20" fill="none" xmlns="http://www.w3.org/2000/svg">
<path d="M10.75 2.75C10.75 2.33579 10.4142 2 10 2C9.58579 2 9.25 2.33579 9.25 2.75V11.3636L6.29526 8.23503C6.01085 7.93389 5.53617 7.92033 5.23503 8.20474C4.9339 8.48915 4.92033 8.96383 5.20474 9.26497L9.45474 13.765C9.59642 13.915 9.79366 14 10 14C10.2063 14 10.4036 13.915 10.5453 13.765L14.7953 9.26497C15.0797 8.96383 15.0661 8.48915 14.765 8.20474C14.4638 7.92033 13.9892 7.93389 13.7047 8.23503L10.75 11.3636V2.75Z" fill="#0F172A"/>
<path d="M3.5 12.75C3.5 12.3358 3.16421 12 2.75 12C2.33579 12 2 12.3358 2 12.75V15.25C2 16.7688 3.23122 18 4.75 18H15.25C16.7688 18 18 16.7688 18 15.25V12.75C18 12.3358 17.6642 12 17.25 12C16.8358 12 16.5 12.3358 16.5 12.75V15.25C16.5 15.9404 15.9404 16.5 15.25 16.5H4.75C4.05964 16.5 3.5 15.9404 3.5 15.25V12.75Z" fill="#0F172A"/>
</svg>

<svg xmlns="http://www.w3.org/2000/svg" viewBox="0 0 20 20" fill="currentColor" aria-hidden="true" data-slot="icon">
  <path d="M10.75 2.75a.75.75 0 0 0-1.5 0v8.614L6.295 8.235a.75.75 0 1 0-1.09 1.03l4.25 4.5a.75.75 0 0 0 1.09 0l4.25-4.5a.75.75 0 0 0-1.09-1.03l-2.955 3.129V2.75Z"/>
  <path d="M3.5 12.75a.75.75 0 0 0-1.5 0v2.5A2.75 2.75 0 0 0 4.75 18h10.5A2.75 2.75 0 0 0 18 15.25v-2.5a.75.75 0 0 0-1.5 0v2.5c0 .69-.56 1.25-1.25 1.25H4.75c-.69 0-1.25-.56-1.25-1.25v-2.5Z"/>
</svg>
